; generated by PrusaSlicer 2.6.1+win64 on 2024-02-17 at 17:01:42 UTC


;
;

;
;
; 

; external perimeters extrusion width = 0.45mm
; perimeters extrusion width = 0.45mm
; infill extrusion width = 0.45mm
; solid infill extrusion width = 0.45mm
; top infill extrusion width = 0.40mm
; first layer extrusion width = 0.42mm

M73 P0 R31
M201 X2500 Y2500 Z400 E5000 ; sets maximum accelerations, mm/sec^2
M203 X180 Y180 Z12 E80 ; sets maximum feedrates, mm / sec
M204 P2000 R1250 T2500 ; sets acceleration (P, T) and retract acceleration (R), mm/sec^2
M205 X8.00 Y8.00 Z2.00 E10.00 ; sets the jerk limits, mm/sec
M205 S0 T0 ; sets the minimum extruding and travel feed rate, mm/sec
;TYPE:Custom
M862.3 P "MINI" ; printer model check
G90 ; use absolute coordinates
M83 ; extruder relative mode
M104 S170 ; set extruder temp for bed leveling
M140 S60 ; set bed temp
M109 R170 ; wait for bed leveling temp
M190 S60 ; wait for bed temp
M204 T1250 ; set travel acceleration
G28 ; home all without mesh bed level
G29 ; mesh bed leveling 
M204 T2500 ; restore travel acceleration
M104 S215 ; set extruder temp
G92 E0
G1 Y-2 X179 F2400
G1 Z3 F720
M109 S215 ; wait for extruder temp

; intro line
M73 P0 R30
G1 X170 F1000
G1 Z0.2 F720
G1 X110 E8 F900
G1 X40 E10 F700
G92 E0

M221 S95 ; set flow
G21 ; set units to millimeters
G90 ; use absolute coordinates
M83 ; use relative distances for extrusion
M900 K0.2 ; Filament gcode LA 1.5
; ; Filament gcode LA 1.0
M107
;LAYER_CHANGE
;Z:0.2
;HEIGHT:0.2
;BEFORE_LAYER_CHANGE
G92 E0.0
;0.2


G1 E-3.2 F4200
G1 Z.2 F720
;AFTER_LAYER_CHANGE
;0.2
G1 Z.4
G1 X51.407 Y73.419 F9000
G1 Z.2 F720
G1 E3.2 F2400
M204 P600
;TYPE:Skirt/Brim
;WIDTH:0.42
G1 F1200
G1 X53.088 Y72.723 E.05705
G1 X126.912 Y72.723 E2.3147
G1 X128.593 Y73.419 E.05705
M73 P1 R30
G1 X131.581 Y76.407 E.13249
G1 X132.277 Y78.088 E.05705
G1 X132.277 Y101.912 E.74698
G1 X131.581 Y103.593 E.05705
G1 X128.593 Y106.581 E.13249
G1 X126.912 Y107.277 E.05705
G1 X53.088 Y107.277 E2.3147
G1 X51.407 Y106.581 E.05705
G1 X48.419 Y103.593 E.13249
G1 X47.723 Y101.912 E.05705
G1 X47.723 Y78.088 E.74698
G1 X48.419 Y76.407 E.05705
G1 X51.364 Y73.462 E.13059
M204 P1000
G1 E-2.24 F4200
;WIPE_START
G1 F7200
G1 X52.956 Y72.779 E-.96
;WIPE_END
G1 Z.4 F720
G1 X52.713 Y76.106 F9000
G1 Z.2 F720
G1 E3.2 F2400
M204 P600
G1 F1200
G1 X53.641 Y75.633 E.03266
G1 X54.878 Y75.387 E.03954
G1 X125.189 Y75.39 E2.20455
G1 X126.21 Y75.584 E.03259
G1 X127.188 Y76 E.03332
G1 X128.312 Y76.896 E.04507
G1 X129.205 Y78.234 E.05044
G1 X129.613 Y79.779 E.0501
G1 X129.602 Y100.309 E.6437
G1 X129.267 Y101.623 E.04252
G1 X128.562 Y102.818 E.0435
G1 X127.587 Y103.741 E.0421
G1 X126.359 Y104.367 E.04322
G1 X125.122 Y104.613 E.03954
G1 X54.782 Y104.613 E2.20546
G1 X53.426 Y104.287 E.04373
G1 X52.223 Y103.594 E.04353
G1 X51.259 Y102.587 E.04371
G1 X50.633 Y101.359 E.04322
G1 X50.387 Y100.122 E.03954
G1 X50.387 Y79.782 E.63775
M73 P2 R30
G1 X50.713 Y78.426 E.04373
G1 X51.406 Y77.223 E.04353
G1 X52.413 Y76.259 E.04371
G1 X52.66 Y76.133 E.00869
M204 P1000
G1 X52.826 Y76.464 F9000
M204 P600
G1 F1200
G1 X53.786 Y75.981 E.0337
G1 X54.896 Y75.764 E.03546
G1 X125.171 Y75.767 E2.20342
G1 X126.117 Y75.95 E.03021
G1 X127.015 Y76.336 E.03065
G1 X128.053 Y77.171 E.04177
G1 X128.849 Y78.362 E.04492
G1 X129.236 Y79.804 E.04681
G1 X129.231 Y100.241 E.64079
G1 X128.927 Y101.457 E.0393
G1 X128.283 Y102.563 E.04013
G1 X127.348 Y103.448 E.04037
G1 X126.214 Y104.019 E.03981
G1 X125.104 Y104.236 E.03546
G1 X54.805 Y104.236 E2.20418
G1 X53.543 Y103.927 E.04074
G1 X52.437 Y103.283 E.04013
G1 X51.552 Y102.348 E.04037
G1 X50.981 Y101.214 E.03981
G1 X50.764 Y100.104 E.03546
G1 X50.764 Y79.805 E.63646
G1 X51.073 Y78.543 E.04074
G1 X51.717 Y77.437 E.04013
G1 X52.652 Y76.552 E.04037
G1 X52.773 Y76.491 E.00425
M204 P1000
G1 X52.937 Y76.823 F9000
M204 P600
G1 F1200
G1 X53.93 Y76.331 E.03475
G1 X54.914 Y76.141 E.03142
G1 X125.152 Y76.144 E2.20226
G1 X126.024 Y76.316 E.02787
G1 X126.84 Y76.671 E.0279
G1 X127.793 Y77.445 E.03849
G1 X128.517 Y78.543 E.04124
G1 X128.859 Y79.828 E.04169
G1 X128.859 Y100.172 E.63787
G1 X128.568 Y101.338 E.03768
G1 X127.972 Y102.348 E.03677
G1 X127.112 Y103.153 E.03693
G1 X126.07 Y103.669 E.03646
G1 X125.087 Y103.859 E.03139
G1 X54.828 Y103.859 E2.20292
G1 X53.662 Y103.568 E.03768
M73 P3 R30
G1 X52.652 Y102.972 E.03677
G1 X51.847 Y102.112 E.03693
G1 X51.331 Y101.07 E.03646
G1 X51.141 Y100.087 E.03139
G1 X51.141 Y79.828 E.63521
G1 X51.432 Y78.662 E.03768
G1 X52.028 Y77.652 E.03677
G1 X52.884 Y76.851 E.03676
M204 P1000
G1 X53.082 Y77.172 F9000
M204 P600
G1 F1200
G1 X54.074 Y76.68 E.03472
G1 X54.931 Y76.518 E.02735
G1 X125.133 Y76.521 E2.20113
G1 X125.929 Y76.681 E.02546
M73 P3 R29
G1 X126.664 Y77.005 E.02519
G1 X127.53 Y77.717 E.03515
G1 X128.185 Y78.723 E.03764
G1 X128.482 Y79.852 E.0366
G1 X128.482 Y100.148 E.63637
G1 X128.21 Y101.219 E.03465
G1 X127.693 Y102.093 E.03184
G1 X126.918 Y102.828 E.03349
G1 X125.926 Y103.32 E.03472
G1 X125.069 Y103.482 E.02735
G1 X54.852 Y103.482 E2.2016
G1 X53.781 Y103.21 E.03465
G1 X52.907 Y102.693 E.03184
G1 X52.172 Y101.918 E.03349
G1 X51.68 Y100.926 E.03472
G1 X51.518 Y100.069 E.02735
G1 X51.518 Y79.852 E.63389
G1 X51.79 Y78.781 E.03465
G1 X52.307 Y77.907 E.03184
G1 X53.038 Y77.213 E.0316
M204 P1000
G1 X53.296 Y77.488 F9000
M204 P600
G1 F1200
G1 X54.215 Y77.031 E.03218
G1 X54.948 Y76.895 E.02337
G1 X125.114 Y76.898 E2.20001
G1 X125.796 Y77.035 E.02181
G1 X126.487 Y77.339 E.02367
G1 X127.267 Y77.988 E.03181
G1 X127.829 Y78.85 E.03226
G1 X128.105 Y79.878 E.03337
G1 X128.105 Y100.123 E.63477
G1 X127.852 Y101.097 E.03155
G1 X127.384 Y101.875 E.02847
G1 X126.682 Y102.533 E.03017
G1 X125.785 Y102.969 E.03127
G1 X125.052 Y103.105 E.02337
G1 X54.877 Y103.105 E2.20029
G1 X53.903 Y102.852 E.03155
M73 P4 R29
G1 X53.125 Y102.384 E.02847
G1 X52.467 Y101.682 E.03017
G1 X52.031 Y100.785 E.03127
G1 X51.895 Y100.052 E.02337
G1 X51.895 Y79.877 E.63257
G1 X52.148 Y78.903 E.03155
G1 X52.616 Y78.125 E.02847
G1 X53.252 Y77.529 E.02733
M204 P1000
G1 X53.507 Y77.805 F9000
M204 P600
G1 F1200
G1 X53.552 Y77.764 E.00191
G1 X54.354 Y77.382 E.02785
G1 X54.964 Y77.272 E.01943
G1 X125.095 Y77.276 E2.19891
G1 X125.699 Y77.4 E.01933
G1 X126.308 Y77.672 E.02091
G1 X127.001 Y78.257 E.02844
G1 X127.495 Y79.028 E.02871
G1 X127.728 Y79.902 E.02836
G1 X127.728 Y100.098 E.63323
G1 X127.495 Y100.972 E.02836
G1 X127.077 Y101.655 E.02511
G1 X126.448 Y102.236 E.02685
G1 X125.646 Y102.618 E.02785
G1 X125.036 Y102.728 E.01943
G1 X54.902 Y102.728 E2.199
G1 X54.028 Y102.495 E.02836
G1 X53.345 Y102.077 E.02511
G1 X52.764 Y101.448 E.02685
G1 X52.382 Y100.646 E.02785
G1 X52.272 Y100.036 E.01943
G1 X52.272 Y79.902 E.63129
G1 X52.505 Y79.028 E.02836
G1 X52.923 Y78.345 E.02511
G1 X53.463 Y77.846 E.02305
M204 P1000
G1 X53.716 Y78.124 F9000
M204 P600
G1 F1200
G1 X53.783 Y78.063 E.00284
G1 X54.489 Y77.735 E.02441
G1 X54.98 Y77.649 E.01563
G1 X125.074 Y77.653 E2.19775
G1 X125.599 Y77.764 E.01682
G1 X126.127 Y78.004 E.01819
G1 X126.734 Y78.525 E.02508
G1 X127.139 Y79.156 E.02351
G1 X127.351 Y79.928 E.0251
G1 X127.351 Y100.072 E.6316
G1 X127.139 Y100.844 E.0251
M73 P5 R29
G1 X126.772 Y101.432 E.02173
G1 X126.217 Y101.937 E.02353
G1 X125.511 Y102.265 E.02441
G1 X125.02 Y102.351 E.01563
G1 X54.928 Y102.351 E2.19769
G1 X54.156 Y102.139 E.0251
G1 X53.568 Y101.772 E.02173
G1 X53.063 Y101.217 E.02353
G1 X52.735 Y100.511 E.02441
G1 X52.649 Y100.02 E.01563
G1 X52.649 Y79.928 E.62997
G1 X52.861 Y79.156 E.0251
G1 X53.228 Y78.568 E.02173
G1 X53.672 Y78.165 E.0188
M204 P1000
G1 X53.924 Y78.436 F9000
M204 P600
G1 F1200
G1 X53.972 Y78.391 E.00206
G1 X54.582 Y78.101 E.02118
G1 X54.997 Y78.026 E.01322
G1 X125.053 Y78.03 E2.19656
G1 X125.497 Y78.127 E.01425
G1 X125.943 Y78.334 E.01542
G1 X126.466 Y78.791 E.02178
G1 X126.785 Y79.286 E.01846
G1 X126.974 Y79.955 E.0218
G1 X126.974 Y100.045 E.62991
G1 X126.784 Y100.715 E.02184
G1 X126.497 Y101.173 E.01695
G1 X126.028 Y101.609 E.02008
G1 X125.418 Y101.899 E.02118
G1 X125.003 Y101.974 E.01322
G1 X54.955 Y101.974 E2.19631
G1 X54.285 Y101.784 E.02184
G1 X53.827 Y101.497 E.01695
G1 X53.391 Y101.028 E.02008
G1 X53.101 Y100.418 E.02118
G1 X53.026 Y100.003 E.01322
G1 X53.026 Y79.955 E.62859
G1 X53.216 Y79.285 E.02184
G1 X53.503 Y78.827 E.01695
G1 X53.88 Y78.477 E.01613
M204 P1000
G1 X54.133 Y78.754 F9000
M204 P600
G1 F1200
G1 X54.203 Y78.69 E.00297
G1 X54.715 Y78.454 E.01768
G1 X55.013 Y78.403 E.00948
G1 X125.031 Y78.407 E2.19537
G1 X125.391 Y78.49 E.01158
M73 P6 R29
G1 X125.756 Y78.662 E.01265
G1 X126.196 Y79.054 E.01848
G1 X126.431 Y79.42 E.01364
G1 X126.597 Y79.983 E.0184
G1 X126.597 Y100.017 E.62815
G1 X126.431 Y100.58 E.0184
G1 X126.195 Y100.947 E.01368
G1 X125.797 Y101.31 E.01689
G1 X125.285 Y101.546 E.01768
G1 X124.987 Y101.597 E.00948
G1 X54.983 Y101.597 E2.19493
G1 X54.42 Y101.431 E.0184
G1 X54.053 Y101.195 E.01368
G1 X53.69 Y100.797 E.01689
G1 X53.454 Y100.285 E.01768
G1 X53.403 Y99.987 E.00948
G1 X53.403 Y79.983 E.62721
G1 X53.569 Y79.42 E.0184
G1 X53.805 Y79.053 E.01368
G1 X54.089 Y78.795 E.01203
M204 P1000
G1 X54.343 Y79.073 F9000
M204 P600
G1 F1200
G1 X54.434 Y78.99 E.00386
G1 X54.843 Y78.81 E.01401
G1 X55.027 Y78.78 E.00585
G1 X125.009 Y78.784 E2.19424
G1 X125.247 Y78.839 E.00766
G1 X125.568 Y78.991 E.01114
G1 X125.923 Y79.315 E.01507
G1 X126.079 Y79.557 E.00903
G1 X126.22 Y80.012 E.01494
G1 X126.22 Y99.988 E.62633
G1 X126.079 Y100.443 E.01494
M73 P6 R28
G1 X125.923 Y100.684 E.009
G1 X125.566 Y101.01 E.01516
G1 X125.157 Y101.19 E.01401
G1 X124.973 Y101.22 E.00585
G1 X55.012 Y101.22 E2.19358
G1 X54.557 Y101.079 E.01494
G1 X54.316 Y100.923 E.009
G1 X53.99 Y100.566 E.01516
G1 X53.81 Y100.157 E.01401
G1 X53.78 Y99.973 E.00585
G1 X53.78 Y80.012 E.62586
G1 X53.921 Y79.557 E.01494
G1 X54.077 Y79.316 E.009
G1 X54.299 Y79.114 E.00941
M204 P1000
G1 X54.554 Y79.383 F9000
M204 P600
G1 F1200
G1 X54.621 Y79.319 E.00291
G1 X54.933 Y79.177 E.01075
G1 X55.044 Y79.157 E.00354
G1 X124.987 Y79.161 E2.19301
G1 X125.104 Y79.188 E.00376
M73 P7 R28
G1 X125.378 Y79.318 E.00951
G1 X125.647 Y79.573 E.01162
G1 X125.73 Y79.7 E.00476
G1 X125.843 Y80.044 E.01135
G1 X125.843 Y99.956 E.62433
G1 X125.73 Y100.3 E.01135
G1 X125.647 Y100.427 E.00476
G1 X125.379 Y100.681 E.01158
G1 X125.067 Y100.823 E.01075
G1 X124.956 Y100.843 E.00354
G1 X55.044 Y100.843 E2.19204
G1 X54.7 Y100.73 E.01135
G1 X54.573 Y100.647 E.00476
G1 X54.319 Y100.379 E.01158
G1 X54.177 Y100.067 E.01075
G1 X54.157 Y99.956 E.00354
G1 X54.157 Y80.044 E.62433
G1 X54.27 Y79.7 E.01135
G1 X54.353 Y79.573 E.00476
G1 X54.51 Y79.424 E.00679
M204 P1000
G1 X54.773 Y79.686 F9000
M204 P600
G1 F1200
G1 X54.815 Y79.644 E.00186
G1 X55.065 Y79.534 E.00856
G1 X124.967 Y79.541 E2.19173
G1 X125.185 Y79.644 E.00756
G1 X125.366 Y79.825 E.00803
G1 X125.466 Y80.079 E.00856
G1 X125.466 Y99.921 E.62213
G1 X125.366 Y100.175 E.00856
G1 X125.185 Y100.356 E.00803
G1 X124.935 Y100.466 E.00856
G1 X55.079 Y100.466 E2.19029
G1 X54.825 Y100.366 E.00856
G1 X54.644 Y100.185 E.00803
G1 X54.534 Y99.935 E.00856
G1 X54.534 Y80.079 E.62257
G1 X54.616 Y79.852 E.00757
G1 X54.73 Y79.729 E.00526
M204 P1000
G1 X54.997 Y79.995 F9000
M204 P600
G1 F1200
G1 X55.052 Y79.94 E.00244
G1 X55.121 Y79.911 E.00235
G1 X124.879 Y79.911 E2.18721
G1 X124.948 Y79.94 E.00235
M73 P8 R28
G1 X125.06 Y80.052 E.00497
G1 X125.089 Y80.121 E.00235
G1 X125.089 Y99.879 E.6195
G1 X125.06 Y99.948 E.00235
G1 X124.948 Y100.06 E.00497
G1 X124.879 Y100.089 E.00235
G1 X55.121 Y100.089 E2.18721
G1 X55.052 Y100.06 E.00235
G1 X54.94 Y99.948 E.00497
G1 X54.911 Y99.879 E.00235
G1 X54.911 Y80.121 E.6195
G1 X54.954 Y80.038 E.00293
M204 P1000
; printing object drzak-Cut id:0 copy 0
G1 E-2.24 F4200
;WIPE_START
G1 F7200
G1 X55.052 Y79.94 E-.0768
G1 X55.121 Y79.911 E-.04148
G1 X56.64 Y79.911 E-.84172
;WIPE_END
G1 Z.4 F720
G1 X115.855 Y80.787 F9000
G1 Z.2 F720
G1 E3.2 F2400
M204 P600
;TYPE:Perimeter
;WIDTH:0.419999
G1 F1200
G1 X118.506 Y80.787 E.08312
;WIDTH:0.454113
G1 X118.841 Y80.804 E.01147
;WIDTH:0.488227
G1 X119.175 Y80.821 E.01238
G1 X119.914 Y80.801 E.02737
;WIDTH:0.485725
G1 X120.803 Y80.82 E.03274
G1 X121.066 Y80.804 E.0097
;WIDTH:0.452862
G1 X121.328 Y80.787 E.00895
;WIDTH:0.419999
G1 X124.213 Y80.787 E.09046
G1 X124.213 Y81.688 E.02825
G1 X124.213 Y83.422 E.05437
;WIDTH:0.458906
G1 X124.193 Y83.753 E.01147
;WIDTH:0.497813
G1 X124.174 Y84.084 E.01254
G1 X124.198 Y84.737 E.02472
;WIDTH:0.454898
G1 X124.195 Y85.391 E.0224
;WIDTH:0.466212
G1 X124.19 Y86.088 E.02453
G1 X124.213 Y86.875 E.02771
;WIDTH:0.419999
G1 X124.213 Y99.213 E.38685
G1 X55.787 Y99.213 E2.14545
G1 X55.787 Y86.707 E.39212
;WIDTH:0.449504
G1 X55.802 Y86.213 E.01671
;WIDTH:0.479009
G1 X55.817 Y85.719 E.01792
G1 X55.801 Y84.773 E.03431
;WIDTH:0.460272
G1 X55.807 Y84.114 E.02287
G1 X55.787 Y83.589 E.01823
;WIDTH:0.419999
G1 X55.787 Y80.787 E.08785
G1 X58.505 Y80.787 E.08522
;WIDTH:0.454113
G1 X58.84 Y80.804 E.01147
;WIDTH:0.488227
G1 X59.175 Y80.821 E.01242
G1 X59.914 Y80.801 E.02737
;WIDTH:0.447596
G1 X60.837 Y80.801 E.03106
;WIDTH:0.44684
G1 X61.624 Y80.787 E.02644
;WIDTH:0.419999
G1 X115.795 Y80.787 E1.69849
M204 P1000
G1 E-2.24 F4200
;WIPE_START
G1 F7200
G1 X117.527 Y80.787 E-.96
;WIPE_END
G1 Z.4 F720
G1 X124.59 Y99.59 F9000
G1 Z.2 F720
G1 E3.2 F2400
M204 P600
;TYPE:External perimeter
G1 F1200
G1 X55.41 Y99.59 E2.16909
G1 X55.41 Y80.41 E.60137
M73 P9 R28
G1 X124.59 Y80.41 E2.16909
G1 X124.59 Y99.53 E.59949
M204 P1000
G1 X124.192 Y99.554 F9000
G1 E-2.24 F4200
;WIPE_START
G1 F7200
G1 X122.858 Y99.532 E-.96
;WIPE_END
G1 Z.4 F720
G1 X116.301 Y85.754 F9000
G1 Z.2 F720
G1 E3.2 F2400
M204 P600
;TYPE:Perimeter
G1 F1200
G1 X116.217 Y84.914 E.02647
G1 X116.284 Y84.278 E.02005
G1 X116.45 Y83.684 E.01934
G1 X116.928 Y82.787 E.03187
G1 X117.264 Y82.384 E.01645
G1 X117.91 Y81.847 E.02634
G1 X118.521 Y81.516 E.02179
;WIDTH:0.445638
G1 X118.813 Y81.406 E.01045
;WIDTH:0.471277
G1 X119.105 Y81.295 E.01113
G1 X119.785 Y81.207 E.02442
;WIDTH:0.472318
G1 X120.629 Y81.242 E.03016
G1 X120.936 Y81.333 E.01143
;WIDTH:0.446159
G1 X121.243 Y81.424 E.01074
;WIDTH:0.419999
G1 X122.053 Y81.822 E.0283
G1 X122.56 Y82.211 E.02004
G1 X122.979 Y82.664 E.01935
G1 X123.445 Y83.436 E.02827
;WIDTH:0.445479
G1 X123.565 Y83.733 E.01072
;WIDTH:0.470959
G1 X123.686 Y84.03 E.01141
G1 X123.786 Y84.642 E.02207
;WIDTH:0.454898
G1 X123.791 Y85.263 E.02127
;WIDTH:0.497813
G1 X123.722 Y85.879 E.02345
G1 X123.547 Y86.299 E.01721
;WIDTH:0.458906
G1 X123.371 Y86.719 E.01575
;WIDTH:0.419999
G1 X123.035 Y87.263 E.02005
G1 X122.627 Y87.726 E.01935
G1 X121.907 Y88.268 E.02826
G1 X121.33 Y88.544 E.02005
G1 X120.736 Y88.713 E.01936
G1 X120.123 Y88.784 E.01935
G1 X119.507 Y88.753 E.01934
G1 X118.634 Y88.528 E.02827
G1 X118.004 Y88.214 E.02207
G1 X117.343 Y87.694 E.02637
G1 X116.928 Y87.213 E.01992
G1 X116.583 Y86.625 E.02138
G1 X116.307 Y85.814 E.02686
M204 P1000
G1 X116.666 Y85.712 F9000
M204 P600
;TYPE:External perimeter
G1 F1200
G1 X116.593 Y84.883 E.02609
G1 X116.658 Y84.324 E.01765
G1 X116.812 Y83.791 E.0174
G1 X117.197 Y83.06 E.0259
G1 X117.554 Y82.625 E.01764
G1 X118.147 Y82.14 E.02402
G1 X118.695 Y81.85 E.01944
G1 X119.226 Y81.679 E.01749
G1 X119.836 Y81.596 E.0193
G1 X120.601 Y81.644 E.02403
G1 X121.144 Y81.788 E.01761
G1 X121.882 Y82.158 E.02588
G1 X122.325 Y82.506 E.01766
G1 X122.699 Y82.917 E.01742
G1 X123.12 Y83.627 E.02588
G1 X123.304 Y84.159 E.01765
G1 X123.397 Y84.706 E.0174
G1 X123.399 Y85.263 E.01746
G1 X123.312 Y85.811 E.0174
G1 X123.019 Y86.583 E.02589
G1 X122.718 Y87.059 E.01766
G1 X122.347 Y87.473 E.01743
G1 X121.684 Y87.964 E.02587
G1 X121.173 Y88.201 E.01766
G1 X120.638 Y88.349 E.0174
G1 X120.085 Y88.409 E.01744
G1 X119.53 Y88.377 E.01743
G1 X118.733 Y88.165 E.02586
G1 X118.179 Y87.88 E.01953
G1 X117.58 Y87.401 E.02405
G1 X117.218 Y86.972 E.0176
G1 X116.911 Y86.438 E.01931
G1 X116.685 Y85.768 E.02217
M204 P1000
G1 X116.287 Y85.583 F9000
G1 E-2.24 F4200
;WIPE_START
G1 F7200
G1 X116.593 Y84.883 E-.49308
G1 X116.658 Y84.324 E-.31187
G1 X116.736 Y84.055 E-.15505
;WIPE_END
G1 Z.4 F720
G1 X61.576 Y81.57 F9000
G1 Z.2 F720
G1 E3.2 F2400
M204 P600
;TYPE:Perimeter
G1 F1200
G1 X62.304 Y81.999 E.02649
