; generated by PrusaSlicer 2.6.1+win64 on 2024-02-17 at 08:45:20 UTC


;
;

;
;
; 

; external perimeters extrusion width = 0.45mm
; perimeters extrusion width = 0.45mm
; infill extrusion width = 0.45mm
; solid infill extrusion width = 0.45mm
; top infill extrusion width = 0.40mm
; first layer extrusion width = 0.42mm

M73 P0 R91
M201 X2500 Y2500 Z400 E5000 ; sets maximum accelerations, mm/sec^2
M203 X180 Y180 Z12 E80 ; sets maximum feedrates, mm / sec
M204 P2000 R1250 T2500 ; sets acceleration (P, T) and retract acceleration (R), mm/sec^2
M205 X8.00 Y8.00 Z2.00 E10.00 ; sets the jerk limits, mm/sec
M205 S0 T0 ; sets the minimum extruding and travel feed rate, mm/sec
;TYPE:Custom
M862.3 P "MINI" ; printer model check
G90 ; use absolute coordinates
M83 ; extruder relative mode
M104 S170 ; set extruder temp for bed leveling
M140 S60 ; set bed temp
M109 R170 ; wait for bed leveling temp
M190 S60 ; wait for bed temp
M204 T1250 ; set travel acceleration
G28 ; home all without mesh bed level
G29 ; mesh bed leveling 
M204 T2500 ; restore travel acceleration
M104 S215 ; set extruder temp
G92 E0
G1 Y-2 X179 F2400
G1 Z3 F720
M109 S215 ; wait for extruder temp

; intro line
G1 X170 F1000
M73 P0 R90
G1 Z0.2 F720
G1 X110 E8 F900
G1 X40 E10 F700
G92 E0

M221 S95 ; set flow
G21 ; set units to millimeters
G90 ; use absolute coordinates
M83 ; use relative distances for extrusion
M900 K0.2 ; Filament gcode LA 1.5
; ; Filament gcode LA 1.0
M107
;LAYER_CHANGE
;Z:0.2
;HEIGHT:0.2
;BEFORE_LAYER_CHANGE
G92 E0.0
;0.2


G1 E-3.2 F4200
G1 Z.2 F720
;AFTER_LAYER_CHANGE
;0.2
G1 Z.4
G1 X61.407 Y63.738 F9000
G1 Z.2 F720
G1 E3.2 F2400
M204 P600
;TYPE:Skirt/Brim
;WIDTH:0.42
G1 F1200
G1 X63.088 Y63.042 E.05705
G1 X136.912 Y63.042 E2.3147
G1 X138.593 Y63.738 E.05705
G1 X141.581 Y66.726 E.13249
G1 X142.277 Y68.406 E.05702
G1 X142.277 Y116.393 E1.5046
G1 X141.581 Y118.074 E.05705
G1 X138.593 Y121.061 E.13247
G1 X136.912 Y121.757 E.05705
G1 X63.088 Y121.757 E2.3147
G1 X61.407 Y121.061 E.05705
G1 X58.419 Y118.074 E.13247
G1 X57.723 Y116.393 E.05705
G1 X57.723 Y68.406 E1.5046
G1 X58.419 Y66.726 E.05702
G1 X61.364 Y63.78 E.13061
M204 P1000
G1 E-2.24 F4200
;WIPE_START
G1 F7200
G1 X62.957 Y63.098 E-.96
;WIPE_END
G1 Z.4 F720
G1 X62.733 Y66.413 F9000
G1 Z.2 F720
G1 E3.2 F2400
M204 P600
G1 F1200
G1 X63.583 Y65.971 E.03004
G1 X64.874 Y65.705 E.04133
G1 X135.189 Y65.709 E2.20468
G1 X136.21 Y65.903 E.03259
G1 X137.188 Y66.319 E.03332
G1 X138.312 Y67.214 E.04505
G1 X139.205 Y68.552 E.05044
G1 X139.613 Y70.098 E.05013
G1 X139.613 Y90.545 E.6411
G1 X139.227 Y92.035 E.04826
G1 X139.022 Y92.398 E.01307
G1 X139.231 Y92.775 E.01352
G1 X139.613 Y94.255 E.04793
G1 X139.613 Y114.715 E.64151
G1 X139.057 Y116.562 E.06048
G1 X138.433 Y117.451 E.03406
G1 X137.603 Y118.212 E.03531
G1 X136.417 Y118.828 E.0419
G1 X135.127 Y119.094 E.0413
G1 X64.765 Y119.094 E2.20615
G1 X62.918 Y118.537 E.06049
G1 X62.029 Y117.914 E.03404
G1 X61.269 Y117.083 E.03531
G1 X60.652 Y115.897 E.04192
G1 X60.387 Y114.607 E.04129
G1 X60.387 Y94.255 E.63812
G1 X60.773 Y92.762 E.04835
G1 X60.978 Y92.403 E.01296
G1 X60.615 Y91.63 E.02678
G1 X60.387 Y90.446 E.03781
G1 X60.387 Y70.084 E.63844
G1 X60.943 Y68.237 E.06048
G1 X61.567 Y67.348 E.03406
G1 X62.397 Y66.588 E.03529
G1 X62.68 Y66.441 E.01
M204 P1000
G1 X62.85 Y66.772 F9000
M204 P600
G1 F1200
G1 X63.732 Y66.319 E.03109
G1 X64.892 Y66.082 E.03712
G1 X135.171 Y66.086 E2.20355
G1 X136.117 Y66.269 E.03021
G1 X137.015 Y66.654 E.03063
G1 X138.053 Y67.49 E.04179
G1 X138.849 Y68.68 E.04489
G1 X139.236 Y70.123 E.04684
G1 X139.236 Y90.52 E.63953
G1 X138.87 Y91.912 E.04513
G1 X138.583 Y92.395 E.01762
G1 X138.874 Y92.898 E.01822
G1 X139.236 Y94.28 E.04479
G1 X139.236 Y114.688 E.63988
G1 X138.731 Y116.371 E.05509
G1 X138.137 Y117.218 E.03244
G1 X137.368 Y117.915 E.03254
G1 X136.268 Y118.481 E.03879
G1 X135.108 Y118.717 E.03712
G1 X64.793 Y118.717 E2.20468
G1 X63.11 Y118.211 E.0551
G1 X62.263 Y117.617 E.03244
G1 X61.565 Y116.848 E.03256
G1 X61 Y115.749 E.03875
G1 X60.764 Y114.588 E.03715
G1 X60.764 Y94.279 E.63677
G1 X61.131 Y92.887 E.04514
M73 P1 R90
G1 X61.407 Y92.424 E.0169
G1 X60.981 Y91.533 E.03097
G1 X60.764 Y90.427 E.03534
G1 X60.764 Y70.112 E.63696
G1 X61.269 Y68.429 E.05509
G1 X61.863 Y67.582 E.03244
G1 X62.632 Y66.884 E.03256
G1 X62.797 Y66.799 E.00582
M204 P1000
G1 X62.965 Y67.131 F9000
M204 P600
G1 F1200
G1 X63.879 Y66.667 E.03214
G1 X64.911 Y66.46 E.033
G1 X135.152 Y66.463 E2.20236
G1 X136.024 Y66.635 E.02787
G1 X136.84 Y66.99 E.0279
G1 X137.793 Y67.764 E.03849
G1 X138.517 Y68.862 E.04124
G1 X138.859 Y70.147 E.04169
G1 X138.859 Y90.495 E.638
G1 X138.513 Y91.785 E.04188
G1 X138.139 Y92.392 E.02235
G1 X138.517 Y93.022 E.02304
G1 X138.859 Y94.305 E.04163
G1 X138.859 Y114.66 E.63822
G1 X138.404 Y116.179 E.04972
G1 X137.841 Y116.983 E.03077
G1 X137.135 Y117.618 E.02977
G1 X136.121 Y118.133 E.03566
G1 X135.089 Y118.34 E.033
G1 X64.82 Y118.34 E2.20324
G1 X63.301 Y117.885 E.04972
M73 P1 R89
G1 X62.497 Y117.321 E.03079
G1 X61.863 Y116.615 E.02975
G1 X61.348 Y115.602 E.03563
G1 X61.141 Y114.57 E.033
G1 X61.141 Y94.304 E.63543
G1 X61.487 Y93.013 E.04191
G1 X61.839 Y92.447 E.0209
G1 X61.345 Y91.435 E.03531
G1 X61.141 Y90.409 E.0328
G1 X61.141 Y70.139 E.63555
G1 X61.596 Y68.62 E.04972
G1 X62.159 Y67.816 E.03077
G1 X62.865 Y67.181 E.02977
G1 X62.911 Y67.158 E.00161
M204 P1000
G1 X63.098 Y67.479 F9000
M204 P600
G1 F1200
G1 X64.024 Y67.016 E.03246
G1 X64.929 Y66.837 E.02893
G1 X135.133 Y66.84 E2.2012
G1 X135.929 Y67 E.02546
G1 X136.664 Y67.324 E.02519
G1 X137.53 Y68.036 E.03515
G1 X138.185 Y69.042 E.03764
G1 X138.482 Y70.171 E.0366
G1 X138.482 Y90.469 E.63643
G1 X138.158 Y91.657 E.03861
G1 X137.693 Y92.388 E.02716
G1 X138.161 Y93.149 E.02801
G1 X138.482 Y94.33 E.03837
G1 X138.482 Y114.633 E.63659
G1 X138.077 Y115.989 E.04437
G1 X137.572 Y116.718 E.02781
G1 X136.902 Y117.32 E.02824
G1 X135.976 Y117.784 E.03248
G1 X135.071 Y117.963 E.02893
G1 X64.848 Y117.963 E2.20179
G1 X63.491 Y117.558 E.0444
G1 X62.763 Y117.052 E.0278
G1 X62.16 Y116.383 E.02824
G1 X61.697 Y115.456 E.03249
G1 X61.518 Y114.552 E.02889
G1 X61.518 Y94.33 E.63405
G1 X61.842 Y93.142 E.03861
G1 X62.322 Y92.396 E.02781
G1 X62.078 Y92.097 E.0121
G1 X61.696 Y91.295 E.02785
G1 X61.518 Y90.39 E.02892
G1 X61.518 Y70.166 E.63411
G1 X61.923 Y68.81 E.04437
G1 X62.428 Y68.081 E.02781
G1 X63.053 Y67.519 E.02635
M204 P1000
G1 X63.304 Y67.801 F9000
M204 P600
G1 F1200
G1 X64.167 Y67.365 E.03032
G1 X64.947 Y67.214 E.02491
G1 X135.114 Y67.217 E2.20004
G1 X135.796 Y67.354 E.02181
G1 X136.487 Y67.658 E.02367
G1 X137.267 Y68.307 E.03181
G1 X137.829 Y69.169 E.03226
G1 X138.105 Y70.197 E.03337
G1 X138.105 Y90.443 E.6348
G1 X137.803 Y91.527 E.03528
G1 X137.217 Y92.426 E.03365
G1 X137.372 Y92.588 E.00703
G1 X137.805 Y93.277 E.02551
G1 X138.105 Y94.356 E.03511
G1 X138.105 Y114.606 E.63492
G1 X137.75 Y115.799 E.03903
G1 X137.275 Y116.484 E.02614
G1 X136.671 Y117.021 E.02534
G1 X135.833 Y117.434 E.02929
G1 X135.053 Y117.586 E.02492
G1 X64.875 Y117.586 E2.20038
G1 X63.681 Y117.231 E.03906
G1 X62.996 Y116.755 E.02615
G1 X62.459 Y116.152 E.02532
G1 X62.046 Y115.313 E.02932
G1 X61.895 Y114.534 E.02488
G1 X61.895 Y94.356 E.63267
G1 X62.197 Y93.273 E.03525
G1 X62.797 Y92.364 E.03415
G1 X62.406 Y91.911 E.01876
G1 X62.047 Y91.155 E.02624
G1 X61.895 Y90.372 E.02501
G1 X61.895 Y70.194 E.63267
G1 X62.25 Y69 E.03906
G1 X62.725 Y68.315 E.02614
G1 X63.259 Y67.84 E.02241
M204 P1000
G1 X63.509 Y68.122 F9000
M204 P600
G1 F1200
G1 X63.559 Y68.078 E.00209
G1 X64.308 Y67.716 E.02608
G1 X64.964 Y67.591 E.02094
G1 X135.095 Y67.594 E2.19891
G1 X135.699 Y67.719 E.01934
G1 X136.308 Y67.991 E.02091
G1 X137.001 Y68.576 E.02844
G1 X137.495 Y69.347 E.02871
G1 X137.728 Y70.221 E.02836
G1 X137.728 Y90.416 E.6332
G1 X137.448 Y91.395 E.03193
G1 X137.039 Y92.02 E.02342
G1 X136.621 Y92.404 E.0178
G1 X137.072 Y92.818 E.0192
G1 X137.451 Y93.409 E.02201
G1 X137.728 Y94.383 E.03175
G1 X137.728 Y114.579 E.63323
G1 X137.422 Y115.611 E.03375
G1 X137.007 Y116.218 E.02305
G1 X136.441 Y116.721 E.02374
G1 X135.692 Y117.084 E.0261
G1 X135.036 Y117.208 E.02093
G1 X64.902 Y117.208 E2.199
G1 X63.869 Y116.903 E.03377
G1 X63.262 Y116.487 E.02307
G1 X62.759 Y115.921 E.02374
G1 X62.397 Y115.172 E.02608
G1 X62.272 Y114.516 E.02094
G1 X62.272 Y94.383 E.63126
G1 X62.552 Y93.404 E.03193
G1 X62.961 Y92.779 E.02342
G1 X63.353 Y92.418 E.01671
G1 X62.735 Y91.723 E.02916
G1 X62.398 Y91.015 E.02459
G1 X62.272 Y90.355 E.02107
G1 X62.272 Y70.221 E.63129
G1 X62.578 Y69.188 E.03378
G1 X62.993 Y68.581 E.02305
G1 X63.465 Y68.162 E.01979
M204 P1000
G1 X63.715 Y68.444 F9000
M204 P600
G1 F1200
G1 X63.789 Y68.378 E.00311
G1 X64.446 Y68.067 E.02279
G1 X64.981 Y67.968 E.01706
G1 X135.074 Y67.971 E2.19772
G1 X135.599 Y68.083 E.01683
M73 P2 R89
G1 X136.127 Y68.323 E.01819
G1 X136.734 Y68.844 E.02508
G1 X137.139 Y69.475 E.02351
G1 X137.351 Y70.247 E.0251
G1 X137.351 Y90.39 E.63157
G1 X137.117 Y91.212 E.0268
G1 X136.738 Y91.791 E.0217
G1 X136.049 Y92.404 E.02892
G1 X136.769 Y93.045 E.03023
G1 X137.118 Y93.589 E.02027
G1 X137.351 Y94.409 E.02673
G1 X137.351 Y114.552 E.63157
G1 X137.093 Y115.425 E.02854
G1 X136.738 Y115.952 E.01992
G1 X136.211 Y116.421 E.02212
G1 X135.554 Y116.732 E.02279
G1 X135.019 Y116.831 E.01706
G1 X64.929 Y116.831 E2.19762
G1 X64.055 Y116.574 E.02856
G1 X63.528 Y116.218 E.01994
G1 X63.059 Y115.691 E.02212
G1 X62.748 Y115.034 E.02279
G1 X62.649 Y114.499 E.01706
G1 X62.649 Y94.409 E.62991
G1 X62.883 Y93.587 E.0268
G1 X63.262 Y93.008 E.0217
G1 X63.98 Y92.37 E.03012
G1 X63.57 Y92.093 E.01551
G1 X63.063 Y91.535 E.02364
G1 X62.75 Y90.876 E.02287
G1 X62.649 Y90.338 E.01716
G1 X62.649 Y70.248 E.62991
G1 X62.907 Y69.374 E.02857
G1 X63.262 Y68.847 E.01992
G1 X63.67 Y68.484 E.01712
M204 P1000
G1 X63.921 Y68.765 F9000
M204 P600
G1 F1200
G1 X64.018 Y68.679 E.00406
G1 X64.581 Y68.42 E.01943
G1 X64.997 Y68.345 E.01325
G1 X135.053 Y68.349 E2.19656
G1 X135.497 Y68.446 E.01425
G1 X135.943 Y68.653 E.01542
G1 X136.466 Y69.11 E.02178
G1 X136.785 Y69.605 E.01846
G1 X136.974 Y70.274 E.0218
G1 X136.974 Y90.364 E.62991
G1 X136.785 Y91.033 E.0218
G1 X136.467 Y91.527 E.01842
G1 X135.982 Y91.958 E.02034
G1 X134.897 Y92.453 E.03739
G1 X135.531 Y92.619 E.02055
G1 X135.941 Y92.813 E.01422
G1 X136.498 Y93.308 E.02336
G1 X136.784 Y93.765 E.0169
G1 X136.974 Y94.435 E.02184
G1 X136.974 Y114.525 E.62991
G1 X136.763 Y115.241 E.0234
G1 X136.468 Y115.688 E.01679
G1 X135.982 Y116.12 E.02039
G1 X135.419 Y116.379 E.01943
G1 X135.003 Y116.454 E.01325
G1 X64.956 Y116.454 E2.19627
G1 X64.239 Y116.243 E.02343
M73 P2 R88
G1 X63.793 Y115.949 E.01675
G1 X63.36 Y115.462 E.02043
G1 X63.101 Y114.9 E.0194
G1 X63.026 Y114.483 E.01328
G1 X63.026 Y94.435 E.62859
G1 X63.215 Y93.766 E.0218
G1 X63.533 Y93.272 E.01842
G1 X64.017 Y92.841 E.02032
G1 X65.105 Y92.354 E.03737
G1 X64.239 Y92.082 E.02846
G1 X63.828 Y91.817 E.01533
G1 X63.391 Y91.347 E.02012
G1 X63.101 Y90.737 E.02118
G1 X63.026 Y90.322 E.01322
G1 X63.026 Y70.275 E.62856
G1 X63.237 Y69.558 E.02343
G1 X63.532 Y69.112 E.01677
G1 X63.876 Y68.805 E.01446
M204 P1000
G1 E-2.24 F4200
;WIPE_START
G1 F7200
G1 X64.018 Y68.679 E-.1052
G1 X64.581 Y68.42 E-.34343
G1 X64.997 Y68.345 E-.23425
G1 X65.497 Y68.345 E-.27712
;WIPE_END
G1 Z.4 F720
G1 X65.013 Y92.884 F9000
G1 Z.2 F720
G1 E3.2 F2400
M204 P600
G1 F1200
G1 X135.031 Y92.887 E2.19537
G1 X135.391 Y92.97 E.01158
G1 X135.756 Y93.143 E.01266
G1 X136.196 Y93.535 E.01848
G1 X136.431 Y93.9 E.01361
G1 X136.597 Y94.463 E.0184
G1 X136.597 Y114.498 E.62818
G1 X136.431 Y115.061 E.0184
G1 X136.195 Y115.427 E.01365
G1 X135.797 Y115.79 E.01689
G1 X135.285 Y116.026 E.01768
G1 X134.987 Y116.077 E.00948
G1 X64.983 Y116.077 E2.19493
G1 X64.42 Y115.911 E.0184
G1 X64.053 Y115.675 E.01368
G1 X63.69 Y115.277 E.01689
G1 X63.454 Y114.765 E.01768
G1 X63.403 Y114.468 E.00945
G1 X63.403 Y94.463 E.62724
G1 X63.569 Y93.9 E.0184
G1 X63.805 Y93.534 E.01365
G1 X64.203 Y93.17 E.01691
G1 X64.715 Y92.935 E.01766
G1 X64.954 Y92.894 E.0076
M204 P1000
G1 X65.013 Y93.263 F9000
M204 P600
G1 F1200
G1 X135.009 Y93.264 E2.19468
G1 X135.247 Y93.32 E.00767
G1 X135.568 Y93.471 E.01112
G1 X135.923 Y93.796 E.01509
G1 X136.079 Y94.037 E.009
G1 X136.22 Y94.493 E.01497
G1 X136.22 Y114.468 E.6263
G1 X136.079 Y114.923 E.01494
G1 X135.923 Y115.165 E.00903
G1 X135.566 Y115.49 E.01514
G1 X135.157 Y115.67 E.01401
G1 X134.973 Y115.7 E.00585
G1 X65.012 Y115.7 E2.19358
G1 X64.557 Y115.56 E.01493
G1 X64.316 Y115.403 E.00902
G1 X63.99 Y115.047 E.01514
G1 X63.81 Y114.638 E.01401
G1 X63.78 Y114.454 E.00585
G1 X63.78 Y94.493 E.62586
G1 X63.921 Y94.037 E.01497
G1 X64.077 Y93.796 E.009
G1 X64.434 Y93.471 E.01514
G1 X64.843 Y93.29 E.01402
G1 X64.954 Y93.272 E.00353
M204 P1000
G1 X65.018 Y93.642 F9000
M204 P600
G1 F1200
G1 X134.987 Y93.641 E2.19383
G1 X135.104 Y93.669 E.00377
G1 X135.378 Y93.798 E.0095
G1 X135.647 Y94.053 E.01162
G1 X135.73 Y94.18 E.00476
G1 X135.843 Y94.524 E.01135
G1 X135.843 Y114.436 E.62433
G1 X135.73 Y114.781 E.01138
G1 X135.647 Y114.908 E.00476
G1 X135.379 Y115.161 E.01156
G1 X135.067 Y115.304 E.01076
G1 X134.956 Y115.323 E.00353
G1 X65.044 Y115.323 E2.19204
G1 X64.7 Y115.21 E.01135
G1 X64.573 Y115.127 E.00476
G1 X64.319 Y114.859 E.01158
G1 X64.177 Y114.547 E.01075
G1 X64.157 Y114.436 E.00354
G1 X64.157 Y94.524 E.62433
G1 X64.27 Y94.18 E.01135
G1 X64.353 Y94.053 E.00476
G1 X64.621 Y93.799 E.01158
G1 X64.959 Y93.652 E.01156
M204 P1000
G1 X65.033 Y94.021 F9000
M204 P600
G1 F1200
G1 X134.967 Y94.021 E2.19273
G1 X135.185 Y94.124 E.00756
G1 X135.366 Y94.305 E.00803
G1 X135.466 Y94.56 E.00859
G1 X135.466 Y114.401 E.6221
G1 X135.366 Y114.656 E.00859
M73 P3 R88
G1 X135.185 Y114.836 E.008
G1 X134.935 Y114.946 E.00856
G1 X65.079 Y114.946 E2.19029
G1 X64.825 Y114.846 E.00856
G1 X64.644 Y114.666 E.008
G1 X64.534 Y114.415 E.00859
G1 X64.534 Y94.56 E.62254
G1 X64.634 Y94.305 E.00859
G1 X64.815 Y94.124 E.00803
G1 X64.979 Y94.047 E.00568
M204 P1000
G1 X65.121 Y94.392 F9000
M204 P600
G1 F1200
G1 X134.879 Y94.392 E2.18721
G1 X134.948 Y94.421 E.00235
G1 X135.06 Y94.532 E.00494
G1 X135.089 Y94.601 E.00235
G1 X135.089 Y114.359 E.6195
G1 X135.06 Y114.429 E.00238
G1 X134.948 Y114.54 E.00494
G1 X134.879 Y114.569 E.00235
G1 X65.121 Y114.569 E2.18721
G1 X65.052 Y114.54 E.00235
G1 X64.94 Y114.429 E.00494
G1 X64.911 Y114.359 E.00238
G1 X64.911 Y94.601 E.6195
G1 X64.94 Y94.532 E.00235
G1 X65.066 Y94.415 E.00539
M204 P1000
G1 E-2.24 F4200
;WIPE_START
G1 F7200
G1 X66.798 Y94.414 E-.96
;WIPE_END
G1 Z.4 F720
G1 X65.066 Y91.916 F9000
G1 Z.2 F720
G1 E3.2 F2400
M204 P600
G1 F1200
G1 X64.983 Y91.916 E.0026
G1 X64.42 Y91.75 E.0184
G1 X64.053 Y91.514 E.01368
G1 X63.69 Y91.116 E.01689
G1 X63.454 Y90.604 E.01768
G1 X63.403 Y90.306 E.00948
G1 X63.403 Y70.302 E.62721
G1 X63.569 Y69.738 E.01843
G1 X63.805 Y69.372 E.01365
G1 X64.203 Y69.009 E.01689
G1 X64.715 Y68.773 E.01768
G1 X65.013 Y68.722 E.00948
G1 X135.031 Y68.726 E2.19537
G1 X135.391 Y68.809 E.01158
G1 X135.756 Y68.981 E.01265
G1 X136.196 Y69.373 E.01848
G1 X136.431 Y69.738 E.01361
G1 X136.597 Y70.302 E.01843
G1 X136.597 Y90.336 E.62815
G1 X136.431 Y90.899 E.0184
G1 X136.195 Y91.266 E.01368
G1 X135.797 Y91.629 E.01689
G1 X135.285 Y91.864 E.01766
G1 X134.987 Y91.916 E.00948
G1 X65.126 Y91.916 E2.19044
M204 P1000
G1 X65.126 Y91.539 F9000
M204 P600
M73 P3 R87
G1 F1200
G1 X65.012 Y91.539 E.00357
G1 X64.557 Y91.398 E.01494
G1 X64.316 Y91.242 E.009
G1 X63.99 Y90.885 E.01516
G1 X63.81 Y90.476 E.01401
G1 X63.78 Y90.292 E.00585
G1 X63.78 Y70.331 E.62586
G1 X63.921 Y69.876 E.01494
G1 X64.077 Y69.634 E.00903
G1 X64.434 Y69.309 E.01514
G1 X64.843 Y69.129 E.01401
G1 X65.027 Y69.099 E.00585
G1 X135.009 Y69.103 E2.19424
G1 X135.247 Y69.158 E.00766
G1 X135.568 Y69.309 E.01112
G1 X135.923 Y69.634 E.01509
G1 X136.079 Y69.876 E.00903
G1 X136.22 Y70.331 E.01494
G1 X136.22 Y90.306 E.6263
G1 X136.079 Y90.762 E.01497
G1 X135.923 Y91.003 E.009
G1 X135.566 Y91.329 E.01516
G1 X135.157 Y91.509 E.01401
G1 X134.973 Y91.539 E.00585
G1 X65.186 Y91.539 E2.18812
M204 P1000
G1 X65.186 Y91.162 F9000
M204 P600
G1 F1200
G1 X65.044 Y91.162 E.00445
G1 X64.7 Y91.049 E.01135
G1 X64.573 Y90.965 E.00477
